X:1
T:The Fair Maid of Barra  "CYMRU"
M:6/8
L:1/8
Q:80
C:Arr. D.J. Campbell
S:Slow Air
K:HP
|: {gef}e|
{g}e3/2{g}c/2e{gef}e3/2{g}c/2{G}A|
{gBd}B3/2{g}A/2{d}c{gBd}B/2{G}A3/2{gef}e|  !
{g}e3/2{g}c/2e{ag}a3/2c/2e|
{ag}a3/2g/2a{fg}f/2e3/2{g}c| |
{Gdc}d3/2{g}c/2e{ag}a3/2c/2e|  !
{ag}a3/2g/2a{fg}f/2e3/2{g}A|
{Gdc}d3/2e/2f{ef}e3/2{g}c/2{G}A|
{gBd}B3/2{g}A/2{d}c{gBd}B/2{G}A3/2:| |:  !
{g}c3/4d/4|
{g}e3/2f/2c{gef}e3/2f/2{g}c|
{gBd}B3/2{g}A/2{d}c{gBd}B/2{G}A3/2{d}c|  !
{g}e3/2{g}c/2e{ag}a3/2c/2e|
{ag}a3/2ga{fg}f/2e3/2{g}c| |
{Gdc}d3/2{g}c/2e{ag}a3/2c/2e|  !
{ag}a3/2g/2a{fg}f/2e3/2{g}A|
{Gdc}d3/2e/2f{ef}e3/2{g}c/2{G}A|
{gBd}B3/2{g}A/2{d}c{gBd}B/2{G}A3/2:|  !

